X:1
T:Title
%%score { ( 1 3 ) | ( 2 4 ) }
L:1/8
M:3/4
K:Eb
V:1 treble nm="Grand Piano"
V:3 treble 
V:2 bass 
V:4 bass 
V:1
 z2 z2[Q:1/4=100] E2 | GG G2 [FA]2 | [GB][GB] [GB]2 [GB]2 | [EAc]3 [EAc] [EAc][EAe] | %4
[M:2/4] [EGB]4 |[M:1/4] [EGB]2 |[M:3/4] [DFA][EG] [B,DF]2 [B,FA]2 | [B,EG][B,FA] [EGB]2 [Ge]2 | %8
 d3 d dc |[M:7/8] B2- [FB-]2 [AB]2- [A-B]/A/ |[M:3/4] z2 z2 G2 | [GB]6 | c3 d e2 | e4 c2 | %14
 [GB]3 [GB] [Ac][GB] | [GB]2 [EG]4 | [EG]3 [DF] [=A,CE]2 |[M:7/8] B-B-B- B- B3 | %18
[M:3/4] [GB]3 [FA] [EG]2 | [GB]6 | c3 d e2 | e4 c2 | [GB]3 [GB] [Ac][Ad] | [Ge]2 [EB]4 | %24
 [B,EG]3 [G,E] [A,DF]2 |[M:2/4] [G,E]4 |] %26
V:2
 z2 z2 [E,G,]2 | [E,B,E][E,B,E] [E,B,E]2 [E,B,]2 | [E,E][E,E] [E,E]2 [E,E]2 | A,,3 A,, A,,C, | %4
[M:2/4] E,4 |[M:1/4] E,2 |[M:3/4] B,,B,, B,,2 B,,2 | E,E, E,2 [E,B,]2 | %8
 [F,B,F]3 [F,B,F] [F,=A,F][F,A,E] |[M:7/8] z2 A,2 F,3 |[M:3/4] E,3 [E,F,] .[E,G,E]2 | [E,E]6 | %12
 [A,EA]3 [A,DA] [A,CA]2 | [A,CA]4 [A,EA]2 | [E,E]3 [E,E] [E,E][E,E] | [E,E]2 [E,B,]4 | %16
 [C,C]3 [C,C] C,2 |[M:7/8] z2 A,2 F,3 |[M:3/4] E,3 [E,F,] [E,G,]2 | [E,E]6 | %20
 [A,EA]3 [A,DA] [A,CA]2 | [A,CA]4 [A,EA]2 | [E,E]3 [E,E] [A,E][F,B,] | [E,B,]2 [E,G,]4 | %24
 B,,3 B,, B,,2 |[M:2/4] E,4 |] %26
V:3
 x6 | x6 | x6 | x6 |[M:2/4] x4 |[M:1/4] x2 |[M:3/4] x6 | x6 | x6 |[M:7/8] [B,D]2 z z z z2 | %10
[M:3/4] [GB]3 [FA] z B, | x6 | x6 | x6 | x6 | x6 | x6 |[M:7/8] [B,D]2 F2 A3 |[M:3/4] x6 | x6 | x6 | %21
 x6 | x6 | x6 | x6 |[M:2/4] x4 |] %26
V:4
 x6 | x6 | x6 | x6 |[M:2/4] x4 |[M:1/4] x2 |[M:3/4] x6 | x6 | x6 |[M:7/8] B,,-B,,-B,,- B,,- B,,3 | %10
[M:3/4] x6 | x6 | x6 | x6 | x6 | x6 | x6 |[M:7/8] B,,-B,,-B,,- B,,- B,,2- B,,/ z/ |[M:3/4] x6 | %19
 x6 | x6 | x6 | x6 | x6 | x6 |[M:2/4] x4 |] %26

